src/lib/packages/icons/src/assets/filled/badge-like.svg

<svg width="24" height="24" viewBox="0 0 24 24" fill="none" xmlns="http://www.w3.org/2000/svg">
<path fill-rule="evenodd" clip-rule="evenodd" d="M20.1219 9.88002L19.681 9.43901C19.4 9.15801 19.2419 8.77601 19.2419 8.37801V7.757C19.2419 6.101 17.9 4.75902 16.244 4.75902H15.623C15.225 4.75902 14.844 4.60102 14.562 4.32002L14.1209 3.87901C12.9499 2.70801 11.0519 2.70801 9.88094 3.87901L9.4399 4.32002C9.1589 4.60102 8.77698 4.75902 8.37898 4.75902H7.75801C6.10201 4.75902 4.75996 6.101 4.75996 7.757V8.37801C4.75996 8.77601 4.602 9.15701 4.321 9.43901L3.87996 9.88002C2.70896 11.051 2.70896 12.949 3.87996 14.12L4.321 14.561C4.602 14.842 4.75996 15.224 4.75996 15.622V16.243C4.75996 17.899 6.10201 19.241 7.75801 19.241H8.37898C8.77698 19.241 9.1579 19.399 9.4399 19.68L9.88094 20.121C11.0519 21.292 12.9499 21.292 14.1209 20.121L14.562 19.68C14.843 19.399 15.225 19.241 15.623 19.241H16.244C17.9 19.241 19.2419 17.899 19.2419 16.243V15.622C19.2419 15.224 19.4 14.843 19.681 14.561L20.1219 14.12C21.2929 12.949 21.2929 11.051 20.1219 9.88002ZM9.25996 15.45C9.25996 15.616 9.12592 15.75 8.95992 15.75H8.45992C8.06992 15.75 7.74995 15.43 7.74995 15.04V11.74C7.74995 11.349 8.06992 11.03 8.45992 11.03H8.95992C9.12592 11.03 9.25996 11.164 9.25996 11.33V15.45ZM16.13 11.95L15.1899 14.78C14.9899 15.36 14.7899 15.75 13.8399 15.75H10.56C10.394 15.75 10.26 15.616 10.26 15.45V10.628C10.26 10.596 10.265 10.564 10.275 10.534L11.1999 7.74001C11.3099 7.43001 11.59 7.25002 11.89 7.25002C12.03 7.25002 12.18 7.29002 12.31 7.38002C12.71 7.64002 12.9399 8.08 12.9399 8.55V10.08H14.79C16.21 10.08 16.44 11.03 16.13 11.95Z" fill="currentColor"/>
</svg>

<svg xmlns="http://www.w3.org/2000/svg" width="24" height="24" fill="none"><path fill="currentColor" fill-rule="evenodd" d="m20.122 9.88-.441-.441a1.501 1.501 0 0 1-.44-1.061v-.621a2.998 2.998 0 0 0-2.997-2.998h-.621c-.398 0-.779-.158-1.061-.439l-.441-.441a2.998 2.998 0 0 0-4.24 0l-.441.441a1.5 1.5 0 0 1-1.061.439h-.621A2.998 2.998 0 0 0 4.76 7.757v.621c0 .398-.158.779-.439 1.061l-.441.441a2.998 2.998 0 0 0 0 4.24l.441.441a1.5 1.5 0 0 1 .439 1.061v.621a2.998 2.998 0 0 0 2.998 2.998h.621c.398 0 .779.158 1.06.439l.442.441a2.998 2.998 0 0 0 4.24 0l.441-.441a1.5 1.5 0 0 1 1.061-.439h.621a2.998 2.998 0 0 0 2.998-2.998v-.621c0-.398.158-.779.439-1.061l.44-.441a2.998 2.998 0 0 0 0-4.24ZM9.26 15.45a.3.3 0 0 1-.3.3h-.5c-.39 0-.71-.32-.71-.71v-3.3c0-.391.32-.71.71-.71h.5a.3.3 0 0 1 .3.3v4.12Zm6.87-3.5-.94 2.83c-.2.58-.4.97-1.35.97h-3.28a.3.3 0 0 1-.3-.3v-4.822c0-.032.005-.064.015-.094L11.2 7.74c.11-.31.39-.49.69-.49.14 0 .29.04.42.13.4.26.63.7.63 1.17v1.53h1.85c1.42 0 1.65.95 1.34 1.87Z" clip-rule="evenodd"/></svg>
